X:1
M:4/4
K:G
B,C ^C|:DB B^A/2B/2|BG D^D|EB B^A/2B/2|B2 E=F|FB BA/2B/2|
c^A=A^A|AB BA|BA ^A/2A/2B/2c/2|dd AF|GB E/2F/2G/2A/2|
BA FA|AB A/2A/2F/2G/2|Ad ef|gf ed|cB BA|\
A/2F/2D/2E/2 DD|
FG F/2D/2F|A/2B/2A BG|AB AG|G/2B/2d/2d/2 cA|G3/2E/2 GA|\
B2 d/2c/2B|A2 AG|
F/2E/2D D2|AB/2A/2 B/2A/2G|Bc/2c/2 dA|Bd de/2g/2|\
fd dc|
d2 AF|F2 AF|D3/2F/2 AG|A3/2A/2 FA|c2 d3/2B/2|AA G2|AB2B|\
cd B/2A/2G|Bd2d|d2 d|:|